img/source-icon/bluray.svg

<svg width="72" height="72" viewBox="0 0 72 72" fill="none" xmlns="http://www.w3.org/2000/svg">
<path d="M9.99492 20.8857C9.92661 20.8857 9.92661 20.9276 9.89245 20.9683C6.92589 25.9979 5.18695 29.3374 3.34529 33.4599L3.14085 33.9133L3.10645 34.0785C2.93617 34.4911 2.97008 34.9441 3.20891 35.3152C4.2999 37.3763 10.4038 39.8088 24.0092 39.8088C34.1706 39.8088 44.98 37.83 44.98 34.12C44.98 30.6154 34.3412 28.5133 24.0092 28.5133C20.565 28.5133 17.1893 29.0492 16.2344 29.2554C17.1551 27.5237 21.0424 21.2155 21.0424 21.1748C21.1105 21.0925 21.1105 21.0925 21.1105 21.0512V20.9689C21.0424 20.9276 21.0083 20.8863 20.9402 20.8863L9.99492 20.8857ZM13.9502 34.1197C13.9502 33.3776 17.8036 32.3058 24.0095 32.3058C30.2153 32.3058 34.0348 33.3776 34.0348 34.1197C34.0348 34.9438 30.2156 35.9747 24.0095 35.9747C17.8034 35.975 13.9502 34.9444 13.9502 34.1197Z" fill="#52525A"/>
<path d="M17.7007 52.6316C19.4397 52.6729 68.372 54.7338 69.4635 33.7496C70.3496 16.3927 34.341 18.0421 34.341 18.0421C34.2732 18.0421 34.0344 18.0421 34.0344 18.2479C34.0344 18.4954 34.1366 18.537 34.2732 18.537C44.2639 18.537 60.4955 23.3601 59.9839 33.7496C59.5746 42.1599 46.8898 52.0538 17.701 52.0538C17.5646 52.0538 17.4282 52.219 17.4282 52.3426C17.428 52.4668 17.5302 52.5903 17.7007 52.6316Z" fill="#52525A"/>
</svg>

<svg width="72" height="72" fill="none" xmlns="http://www.w3.org/2000/svg"><path d="M9.995 20.886c-.068 0-.068.042-.103.082-2.966 5.03-4.705 8.37-6.547 12.492l-.204.453-.035.166c-.17.412-.136.865.103 1.236 1.09 2.061 7.195 4.494 20.8 4.494 10.162 0 20.971-1.979 20.971-5.689 0-3.505-10.639-5.607-20.97-5.607-3.445 0-6.82.536-7.776.742.921-1.731 4.808-8.04 4.808-8.08.068-.082.068-.082.068-.124v-.082c-.068-.041-.102-.083-.17-.083H9.995zM13.95 34.12c0-.742 3.854-1.814 10.06-1.814 6.205 0 10.025 1.072 10.025 1.814 0 .824-3.82 1.855-10.025 1.855-6.207 0-10.06-1.03-10.06-1.855z" fill="#52525A"/><path d="M17.7 52.632c1.74.04 50.672 2.102 51.764-18.882.886-17.357-35.123-15.708-35.123-15.708-.068 0-.307 0-.307.206 0 .247.103.289.24.289 9.99 0 26.221 4.823 25.71 15.213-.41 8.41-13.094 18.304-42.283 18.304-.136 0-.273.165-.273.289 0 .124.102.247.273.289z" fill="#52525A"/></svg>
